X:69
T: Nachtfahrt
N: A0073
O: Europa, Mitteleuropa, Deutschland
N: Melodie aus Schmeltzels Quodlibet 8.
R: Romanze, Ballade, Lied
M: 4/2
L: 1/2
K: D
D | =FFGG | A3
A | AAGG | =F2z
F | =FFAA | EEG
G | =FFEE | D3

